!!!COM: Palestrina, Giovanni Perluigi da
!!!OPR: Missa In majoribus duplicibus
!!!OMD: Sanctus
!!!OTL: First Section
**kern	**kern	**kern	**kern
*Ibass	*Itenor	*Icalto	*Icant
!Bassus	!Tenor	!Altus	!Cantus
*clefF4	*clefGv2	*clefG2	*clefG2
*k[]	*k[]	*k[]	*k[]
*?:X	*?:X	*?:X	*?:X
*M4/2	*M4/2	*M4/2	*M4/2
=1	=1	=1	=1
0r	1F	0r	0r
.	1A	.	.
=2	=2	=2	=2
0r	2.G	1B-	1r
.	4A	.	.
.	1B-	1d	1f
=3	=3	=3	=3
0r	1F	2c	1a
.	.	1f	.
.	2.c	.	1g
.	.	4e	.
.	4B-	4d	.
=4	=4	=4	=4
0r	1A	2e	1.cc
.	.	4c	.
.	.	4d	.
.	1G	4e	.
.	.	4f	.
.	.	[2g	2b-
=5	=5	=5	=5
0r	1d	2g]	1a
.	.	2f	.
.	1B-	2d	1b-
.	.	[2f	.
=6	=6	=6	=6
1r	1c	2f]	1g
.	.	2e	.
1F	2r	2f	2.a
.	[2c	[2a	.
.	.	.	4b-
=7	=7	=7	=7
1A	2c]	4a]	1cc
.	.	4b-	.
.	2.e	2.cc	.
1G	.	.	2.gg
.	4d	4b-	.
.	[2g	2b-	.
.	.	.	4ff
=8	=8	=8	=8
1.c	4g]	0g	4ee
.	4f	.	4dd
.	4e	.	2cc
.	4d	.	.
.	2c	.	2ee
2B-	2d	.	[2dd
=9	=9	=9	=9
1A	2e	1r	2dd]
.	2.f	.	2cc
1B-	.	1d	1dd
.	4e	.	.
.	4d	.	.
.	4c	.	.
=10	=10	=10	=10
0G	1B-	1g	1r
.	1r	[1b-	1g
=11	=11	=11	=11
0r	1G	2b-]	1dd
.	.	4a	.
.	.	4g	.
.	1d	2a	[1ff
.	.	2b-	.
=12	=12	=12	=12
0r	1.f	1.a	2ff]
.	.	.	4ee
.	.	.	4dd
.	.	.	2.cc
.	4e	4g	.
.	4d	4f	4b-
=13	=13	=13	=13
0r	2c	4g	2cc
.	.	4a	.
.	2B-	4b-	2dd
.	.	4g	.
.	1c	2a	1cc
.	.	[2g	.
=14	=14	=14	=14
0r	1d	2g]	2b-
.	.	2f	1a
.	2c	2e	.
.	2B-	2d	[2g
=15	=15	=15	=15
1D	1A	2r	2g]
.	.	2a	2f#
1G	2r	[1b-	1g
.	[2G	.	.
=16	=16	=16	=16
1.B-	2G]	2b-]	0r
.	2.d	4a	.
.	.	4g	.
.	.	4f	.
.	4e	4g	.
4A	[2f	[2a	.
4G	.	.	.
=17	=17	=17	=17
2F	2f]	2a]	0r
2G	4e	4g	.
.	4d	4f	.
1A	4c	4e	.
.	4d	4d	.
.	[2e	2c	.
=18	=18	=18	=18
2G	4e]	2B-	0r
.	4d	.	.
2F	1d	2A	.
1E	.	1G	.
.	2c#	.	.
=19	=19	=19	=19
2.D	1d	2A	1f
.	.	2.a	.
4E	.	.	.
1F	1c	.	1a
.	.	4g	.
.	.	[2f	.
=20	=20	=20	=20
1C	1r	2f]	1g
.	.	2e	.
1r	1F	2.a	[1cc
.	.	8g	.
.	.	8f	.
=21	=21	=21	=21
1r	1A	2e	1cc]
.	.	2f	.
2r	1G	1g	1b-
2G	.	.	.
=22	=22	=22	=22
2A	1c	2e	1a
2F	.	4f	.
.	.	4e	.
[1G	[1B-	4d	2b-
.	.	4c	.
.	.	4B-	2g
.	.	4A	.
=23	=23	=23	=23
1G]	2B-]	2G	[0dd
.	4A	1g	.
.	4G	.	.
1D	1A	.	.
.	.	2f#	.
=24	=24	=24	=24
2r	2G	1g	1dd]
2.G	2.B-	.	.
.	.	[1d	1r
4G	4B-	.	.
2F#	2A	.	.
=25	=25	=25	=25
1G	1B-	1d]	1.g
2C	1c	2r	.
[2c	.	[2e-	2g
=26	=26	=26	=26
4c]	1G	4e-]	0g
4c	.	4e-	.
2B	.	2d	.
1c	1r	1e-	.
=27	=27	=27	=27
1G	2r	2d	0dd
.	2.g	2.b-	.
1r	.	.	.
.	4g	4b-	.
.	2f#	2a	.
=28	=28	=28	=28
0r	2g	1b-	0dd
.	2G	.	.
.	1B-	2f	.
.	.	[2g	.
=29	=29	=29	=29
0r	1A	4g]	1cc
.	.	4g	.
.	.	2f	.
.	4G	2g	1b-
.	4A	.	.
.	4B-	2d	.
.	4c	.	.
=30	=30	=30	=30
0r	2d	2f	0a
.	2e	2c	.
.	4f#	1d	.
.	2g	.	.
.	4f#	.	.
=31	=31	=31	=31
2r	2g	1e	[0g
2.c	2.e	.	.
.	.	1r	.
4c	4e	.	.
2B	2d	.	.
=32	=32	=32	=32
1c	1e	1r	1g]
1F	2f	2r	1cc
.	[2f	[2a	.
=33	=33	=33	=33
0r	4f]	4a]	0cc
.	4f	4a	.
.	2e	2g	.
.	2.f	1a	.
.	4e	.	.
=34	=34	=34	=34
2r	4d	2f	0dd
.	4c	.	.
2.G	4B-	1b-	.
.	4A	.	.
.	2G	.	.
4G	.	.	.
2F#	2A	[2a	.
=35	=35	=35	=35
2G	2B-	2a]	[0dd
2G	2G	1g	.
2D	1A	.	.
2D	.	2f#	.
=36	=36	=36	=36
0G	0B	0g	0dd]
*-	*-	*-	*-
!!!CDT: 1525/^1526/-1594/2/2
!!!OCY: Italia
!!!AGN: Mass (Paraphrase)
!!!AST: renaissance, vocal
!!!ASW: Gregorian Mass
!!!PWK: Masses, Book 7
!!!RNB: Cadence finals: E,C,G,D,F
!!!YOR: Le Opere Complete, v. 23, p. 149
!!!YOO: Rome, Italy: Fratelli Scalera
!!!END: 1992//
!!!EED: John Miller
!!!YEC: Copyright 2000, John Miller
!!!YEN: United States of America
!!!YEM: Rights to all derivative electronic formats reserved.
!!!YEM: Refer to licensing agreement for further details.
!!!YEM: This file must be accompanied by the licensing agreement.
!!!YEM: A copy of the licensing agreement may be found at http://www.music-cog.ohio-state.edu/HumdrumDatabases/Palestrina/license.txt
!!!EMD: converted to Humdrum by Bret Aarden
